assets/icons/logo/footer-checkin.svg

<svg preserveAspectRatio="none" width="100%" height="100%" overflow="visible" style="display: block;" viewBox="0 0 135 41.672" fill="none" xmlns="http://www.w3.org/2000/svg">
<g id="Frame 2">
<path id="Subtract" d="M28.7676 0C33.2844 9.63215e-10 35.5433 -0.000157636 37.2686 0.878906C38.7861 1.65219 40.0197 2.88675 40.793 4.4043C41.6719 6.12957 41.6719 8.38845 41.6719 12.9053V28.7676C41.6719 33.2844 41.672 35.5433 40.793 37.2686C40.0197 38.7859 38.7859 40.0197 37.2686 40.793C35.5433 41.672 33.2844 41.6719 28.7676 41.6719H12.9053C8.38844 41.6719 6.12957 41.6719 4.4043 40.793C2.88675 40.0197 1.65219 38.7861 0.878906 37.2686C-0.0001582 35.5433 9.26873e-10 33.2844 0 28.7676V12.9053C0 8.3885 2.53408e-05 6.12956 0.878906 4.4043C1.65218 2.88667 2.88667 1.65218 4.4043 0.878906C6.12956 2.53408e-05 8.3885 0 12.9053 0H28.7676ZM14.333 18.2256C13.6285 18.2256 12.9375 18.3131 12.2607 18.4893C11.6493 18.6484 11.0341 18.8421 10.415 19.0693C10.2953 19.1133 10.2168 19.2279 10.2168 19.3555V30.7393C10.2169 30.9619 10.4472 31.1119 10.6563 31.0352C11.1184 30.8655 11.6252 30.7343 12.1768 30.6436C12.9092 30.523 13.6284 30.4629 14.333 30.4629C15.3262 30.4629 16.2932 30.5788 17.2334 30.8105C18.0189 31.0042 18.7933 31.2794 19.5566 31.6348C19.7642 31.7312 20.0065 31.5823 20.0068 31.3535V24.1055C20.0068 24.0177 19.9689 23.9334 19.9033 23.875C17.7441 21.9566 16.0925 20.1586 14.9492 18.4814C14.9231 18.4431 14.8967 18.4045 14.8711 18.3662C14.8165 18.2847 14.7269 18.2326 14.6289 18.2295C14.5305 18.2265 14.4316 18.2256 14.333 18.2256ZM26.6367 18.2295C26.5385 18.2325 26.4482 18.2846 26.3936 18.3662C26.368 18.4044 26.3425 18.4431 26.3164 18.4814C25.1731 20.1586 23.5217 21.9565 21.3623 23.875C21.2966 23.9334 21.2588 24.0176 21.2588 24.1055V31.3535C21.2591 31.5824 21.5014 31.7314 21.709 31.6348C22.4723 31.2795 23.2467 31.0041 24.0322 30.8105C24.9724 30.5788 25.9394 30.4629 26.9326 30.4629C27.6371 30.4629 28.3556 30.5231 29.0879 30.6436C29.6396 30.7343 30.1471 30.8654 30.6094 31.0352C30.8183 31.1115 31.0487 30.9618 31.0488 30.7393V19.3555C31.0488 19.2281 30.9701 19.1134 30.8506 19.0693C30.2316 18.8421 29.6163 18.6484 29.0049 18.4893C28.3282 18.3131 27.6372 18.2256 26.9326 18.2256C26.834 18.2256 26.7352 18.2265 26.6367 18.2295ZM20.6455 7.79688C19.0224 7.79688 17.5936 8.3655 16.3604 9.50293C15.1272 10.6403 14.5107 12.168 14.5107 14.085C14.5109 15.3628 15.0184 16.7525 16.0342 18.2539C17.0502 19.7556 18.5879 21.3819 20.6455 23.1328C22.703 21.382 24.2399 19.7555 25.2559 18.2539C26.2716 16.7525 26.7792 15.3628 26.7793 14.085C26.7793 12.168 26.1629 10.6404 24.9297 9.50293C23.6965 8.3656 22.2684 7.79697 20.6455 7.79688ZM20.5674 11.8291C21.6808 11.8292 22.5839 12.7322 22.584 13.8457C22.584 14.9592 21.6809 15.8622 20.5674 15.8623C19.4538 15.8623 18.5508 14.9593 18.5508 13.8457C18.5509 12.7322 19.4538 11.8291 20.5674 11.8291Z" fill="var(--fill-0, #6C4122)"/>
<g id="Frame 1">
<g id="encontrei">
<path d="M51.3014 20.4019C50.0305 20.4019 48.9328 20.1339 48.0085 19.5979C47.0897 19.0564 46.3827 18.2915 45.8875 17.3033C45.3923 16.3095 45.1448 15.1399 45.1448 13.7943C45.1448 12.4712 45.3923 11.3099 45.8875 10.3105C46.3882 9.30555 47.0869 8.52392 47.9837 7.96562C48.8806 7.40173 49.9342 7.11978 51.1446 7.11978C51.9259 7.11978 52.6631 7.24819 53.3564 7.50501C54.0551 7.75625 54.6713 8.14707 55.205 8.67746C55.7442 9.20785 56.1678 9.8834 56.4759 10.7041C56.7841 11.5192 56.9381 12.4907 56.9381 13.6185V14.5481H46.5477V12.5047H54.0744C54.0689 11.924 53.9451 11.4076 53.703 10.9554C53.4609 10.4975 53.1225 10.1374 52.6879 9.87503C52.2587 9.61262 51.7581 9.48142 51.1859 9.48142C50.5751 9.48142 50.0387 9.63216 49.5765 9.93365C49.1144 10.2296 48.754 10.6204 48.4954 11.1061C48.2423 11.5862 48.113 12.1138 48.1075 12.6889V14.4727C48.1075 15.2208 48.2423 15.8629 48.5119 16.3988C48.7815 16.9292 49.1584 17.3368 49.6426 17.6215C50.1267 17.9007 50.6934 18.0403 51.3427 18.0403C51.7773 18.0403 52.1707 17.9789 52.5228 17.856C52.8749 17.7276 53.1803 17.5406 53.4389 17.2949C53.6975 17.0493 53.8928 16.745 54.0248 16.3821L56.8143 16.7003C56.6383 17.4485 56.3026 18.1017 55.8075 18.66C55.3178 19.2127 54.6906 19.6426 53.9258 19.9497C53.161 20.2512 52.2862 20.4019 51.3014 20.4019Z" fill="var(--fill-0, #6C4122)"/>
<path d="M60.5939 12.6135V20.1507H57.6063V7.28727H60.4618V9.47305H60.6104C60.902 8.75283 61.3669 8.18057 62.0051 7.75625C62.6488 7.33194 63.4439 7.11978 64.3902 7.11978C65.265 7.11978 66.027 7.30961 66.6762 7.68926C67.331 8.0689 67.8372 8.61884 68.1948 9.33905C68.5579 10.0593 68.7367 10.933 68.7312 11.9603V20.1507H65.7437V12.4293C65.7437 11.5695 65.5236 10.8967 65.0834 10.411C64.6488 9.92527 64.0463 9.68241 63.2761 9.68241C62.7534 9.68241 62.2885 9.79966 61.8813 10.0341C61.4797 10.2631 61.1633 10.5952 60.9322 11.0307C60.7067 11.4662 60.5939 11.9938 60.5939 12.6135Z" fill="var(--fill-0, #6C4122)"/>
<path d="M75.4385 20.4019C74.173 20.4019 73.0864 20.12 72.1786 19.5561C71.2763 18.9922 70.5803 18.2133 70.0906 17.2196C69.6065 16.2202 69.3644 15.0701 69.3644 13.7692C69.3644 12.4628 69.612 11.3099 70.1071 10.3105C70.6023 9.30555 71.301 8.52392 72.2034 7.96562C73.1112 7.40173 74.1841 7.11978 75.422 7.11978C76.4508 7.11978 77.3614 7.3124 78.1537 7.69763C78.9515 8.07728 79.5869 8.61605 80.0601 9.31393C80.5333 10.0062 80.8029 10.8158 80.8689 11.7426H78.0134C77.8978 11.1228 77.6227 10.6064 77.1881 10.1933C76.7589 9.77453 76.184 9.56517 75.4632 9.56517C74.8525 9.56517 74.3161 9.73266 73.8539 10.0676C73.3918 10.397 73.0314 10.8716 72.7728 11.4913C72.5197 12.111 72.3932 12.8536 72.3932 13.719C72.3932 14.5955 72.5197 15.3492 72.7728 15.9801C73.0259 16.6054 73.3808 17.0884 73.8374 17.4289C74.2996 17.7639 74.8415 17.9314 75.4632 17.9314C75.9034 17.9314 76.2968 17.8477 76.6434 17.6802C76.9955 17.5071 77.2899 17.2586 77.5265 16.9348C77.763 16.611 77.9254 16.2174 78.0134 15.754H80.8689C80.7974 16.664 80.5333 17.4708 80.0766 18.1743C79.6199 18.8721 78.9982 19.4193 78.2115 19.8157C77.4247 20.2065 76.5004 20.4019 75.4385 20.4019Z" fill="var(--fill-0, #6C4122)"/>
<path d="M86.9923 20.4019C85.7543 20.4019 84.6815 20.1255 83.7736 19.5728C82.8658 19.0201 82.1616 18.2468 81.6609 17.2531C81.1657 16.2593 80.9181 15.098 80.9181 13.7692C80.9181 12.4404 81.1657 11.2764 81.6609 10.277C82.1616 9.27764 82.8658 8.50159 83.7736 7.94887C84.6815 7.39614 85.7543 7.11978 86.9923 7.11978C88.2302 7.11978 89.3031 7.39614 90.2109 7.94887C91.1187 8.50159 91.8202 9.27764 92.3154 10.277C92.816 11.2764 93.0664 12.4404 93.0664 13.7692C93.0664 15.098 92.816 16.2593 92.3154 17.2531C91.8202 18.2468 91.1187 19.0201 90.2109 19.5728C89.3031 20.1255 88.2302 20.4019 86.9923 20.4019ZM87.0088 17.9733C87.68 17.9733 88.2412 17.7862 88.6924 17.4122C89.1435 17.0325 89.4791 16.5245 89.6992 15.888C89.9248 15.2515 90.0376 14.5425 90.0376 13.7608C90.0376 12.9736 89.9248 12.2618 89.6992 11.6253C89.4791 10.9833 89.1435 10.4724 88.6924 10.0928C88.2412 9.71312 87.68 9.52329 87.0088 9.52329C86.321 9.52329 85.7488 9.71312 85.2922 10.0928C84.841 10.4724 84.5026 10.9833 84.2771 11.6253C84.057 12.2618 83.947 12.9736 83.947 13.7608C83.947 14.5425 84.057 15.2515 84.2771 15.888C84.5026 16.5245 84.841 17.0325 85.2922 17.4122C85.7488 17.7862 86.321 17.9733 87.0088 17.9733Z" fill="var(--fill-0, #6C4122)"/>
<path d="M96.7304 12.6135V20.1507H93.7429V7.28727H96.5984V9.47305H96.7469C97.0385 8.75283 97.5034 8.18057 98.1416 7.75625C98.7854 7.33194 99.5804 7.11978 100.527 7.11978C101.402 7.11978 102.164 7.30961 102.813 7.68926C103.468 8.0689 103.974 8.61884 104.331 9.33905C104.694 10.0593 104.873 10.933 104.868 11.9603V20.1507H101.88V12.4293C101.88 11.5695 101.66 10.8967 101.22 10.411C100.785 9.92527 100.183 9.68241 99.4126 9.68241C98.8899 9.68241 98.425 9.79966 98.0179 10.0341C97.6162 10.2631 97.2999 10.5952 97.0688 11.0307C96.8432 11.4662 96.7304 11.9938 96.7304 12.6135Z" fill="var(--fill-0, #6C4122)"/>
<path d="M112.376 7.28727V9.63216H105.088V7.28727H112.376ZM106.887 4.20542H109.875V16.2816C109.875 16.6892 109.935 17.0018 110.056 17.2196C110.183 17.4317 110.348 17.5769 110.552 17.655C110.755 17.7332 110.981 17.7723 111.228 17.7723C111.415 17.7723 111.586 17.7583 111.74 17.7304C111.9 17.7025 112.021 17.6774 112.103 17.655L112.607 20.025C112.447 20.0809 112.219 20.1423 111.922 20.2093C111.63 20.2763 111.272 20.3154 110.849 20.3265C110.1 20.3489 109.427 20.2344 108.827 19.9832C108.227 19.7264 107.751 19.33 107.399 18.794C107.052 18.258 106.882 17.588 106.887 16.7841V4.20542Z" fill="var(--fill-0, #6C4122)"/>
<path d="M113.015 20.1507V7.28727H115.912V9.43117H116.044C116.275 8.68863 116.671 8.11636 117.232 7.71438C117.799 7.30682 118.445 7.10303 119.172 7.10303C119.337 7.10303 119.521 7.11141 119.724 7.12816C119.934 7.13932 120.107 7.15886 120.244 7.18678V9.97552C120.118 9.93086 119.917 9.89178 119.642 9.85828C119.372 9.8192 119.111 9.79966 118.858 9.79966C118.313 9.79966 117.824 9.91969 117.389 10.1598C116.96 10.3943 116.621 10.7209 116.374 11.1396C116.126 11.5583 116.002 12.0413 116.002 12.5884V20.1507H113.015Z" fill="var(--fill-0, #6C4122)"/>
<path d="M125.46 20.4019C124.189 20.4019 123.091 20.1339 122.167 19.5979C121.248 19.0564 120.541 18.2915 120.046 17.3033C119.551 16.3095 119.303 15.1399 119.303 13.7943C119.303 12.4712 119.551 11.3099 120.046 10.3105C120.547 9.30555 121.246 8.52392 122.142 7.96562C123.039 7.40173 124.093 7.11978 125.303 7.11978C126.084 7.11978 126.822 7.24819 127.515 7.50501C128.214 7.75625 128.83 8.14707 129.364 8.67746C129.903 9.20785 130.326 9.8834 130.635 10.7041C130.943 11.5192 131.097 12.4907 131.097 13.6185V14.5481H120.706V12.5047H128.233C128.227 11.924 128.104 11.4076 127.862 10.9554C127.619 10.4975 127.281 10.1374 126.846 9.87503C126.417 9.61262 125.917 9.48142 125.344 9.48142C124.734 9.48142 124.197 9.63216 123.735 9.93365C123.273 10.2296 122.913 10.6204 122.654 11.1061C122.401 11.5862 122.272 12.1138 122.266 12.6889V14.4727C122.266 15.2208 122.401 15.8629 122.671 16.3988C122.94 16.9292 123.317 17.3368 123.801 17.6215C124.285 17.9007 124.852 18.0403 125.501 18.0403C125.936 18.0403 126.329 17.9789 126.681 17.856C127.034 17.7276 127.339 17.5406 127.597 17.2949C127.856 17.0493 128.051 16.745 128.183 16.3821L130.973 16.7003C130.797 17.4485 130.461 18.1017 129.966 18.66C129.476 19.2127 128.849 19.6426 128.084 19.9497C127.32 20.2512 126.445 20.4019 125.46 20.4019Z" fill="var(--fill-0, #6C4122)"/>
<path d="M131.765 20.1507V7.28727H134.752V20.1507H131.765ZM133.267 5.46161C132.794 5.46161 132.387 5.30249 132.046 4.98426C131.704 4.66044 131.534 4.27242 131.534 3.82019C131.534 3.36238 131.704 2.97435 132.046 2.65612C132.387 2.3323 132.794 2.17039 133.267 2.17039C133.746 2.17039 134.153 2.3323 134.488 2.65612C134.829 2.97435 135 3.36238 135 3.82019C135 4.27242 134.829 4.66044 134.488 4.98426C134.153 5.30249 133.746 5.46161 133.267 5.46161Z" fill="var(--fill-0, #6C4122)"/>
</g>
<g id="por ai">
<path d="M48.5867 39.5016C48.4415 37.4025 48.2549 35.3034 48.1097 33.1835C45.8492 32.2483 44.9989 29.9414 45.1648 27.3227L47.2387 27.4058C47.1557 28.6113 47.3009 29.7543 47.9231 30.5441C47.8401 29.1101 47.7986 27.6552 47.9853 26.2212C48.2756 23.8311 50.0384 22.1269 52.4234 22.1269C52.6515 22.1269 52.8796 22.1477 53.1077 22.1685C56.3222 22.5842 58.0228 25.2444 57.6288 28.3619C57.2347 31.2715 55.3682 32.7887 52.693 33.3706C51.8842 33.5576 51.0546 33.6616 50.2251 33.62C50.3495 35.5113 50.5154 37.4025 50.6398 39.3146L48.5867 39.5016ZM50.0799 31.5209C50.8057 31.5832 51.5316 31.5001 52.2574 31.3546C54.0824 30.939 55.306 30.0869 55.5549 28.0917C55.8245 26.1173 54.912 24.4962 52.8381 24.226C51.1998 24.0182 50.2251 24.995 50.0384 26.4914C49.8103 28.1748 49.9555 29.8375 50.0799 31.5209Z" fill="var(--fill-0, #6C4122)"/>
<path d="M63.183 35.2411C59.9685 35.2411 57.625 33.2043 57.625 29.9206C57.625 27.0317 59.4293 25.1405 62.3327 25.1405C62.8719 25.1405 63.4111 25.2028 63.9503 25.3067L63.577 27.3435C63.1622 27.2604 62.7475 27.2188 62.3327 27.2188C60.5699 27.2188 59.6989 28.1956 59.6989 29.9206C59.6989 32.0613 61.1299 33.1628 63.183 33.1628C65.5887 33.1628 67.1441 31.2299 67.1441 28.9022C67.1441 26.3667 65.6716 24.3299 62.9341 24.3299C62.312 24.3299 61.7105 24.4131 61.1091 24.5586L60.6529 22.5218C61.3995 22.3555 62.1668 22.2516 62.9341 22.2516C66.7708 22.2516 69.2179 25.1613 69.2179 28.9022C69.2179 32.3938 66.75 35.2411 63.183 35.2411Z" fill="var(--fill-0, #6C4122)"/>
<path d="M71.5444 35.1164C70.0097 35.1164 69.4498 33.6823 69.4498 32.3522C69.4498 30.2531 70.5282 27.4266 71.7725 25.7432C71.4407 25.1613 71.0259 24.6417 70.4452 24.2468L71.6481 22.5426C72.291 22.9998 72.8302 23.5817 73.2449 24.226C75.0907 22.7296 77.3719 22.1477 79.7154 22.1477V24.226C77.3719 24.1845 75.5262 24.7664 74.0745 26.0757C74.4271 27.1564 74.5722 28.3203 74.5722 29.4426C74.5722 31.3546 74.116 35.1164 71.5444 35.1164ZM71.5651 33.329C72.4569 33.329 72.6643 30.5441 72.6643 29.8998C72.6643 29.2971 72.6228 28.6736 72.5191 28.0501C71.814 29.2555 71.2126 30.9597 71.2126 32.3522C71.2126 32.5808 71.2126 33.329 71.5651 33.329Z" fill="var(--fill-0, #6C4122)"/>
<path d="M87.0776 35.2203C84.8378 34.9293 82.9092 33.4122 83.2202 30.939C83.5728 28.3203 86.0407 27.4682 88.3427 27.4682C89.6077 27.4682 90.8313 27.7384 92.0342 28.0709C91.7853 25.8887 90.5202 24.3923 88.2805 24.3923C86.7873 24.3923 85.2319 25.0989 84.0083 25.8679L82.8884 24.1221C84.4646 23.1245 86.3518 22.314 88.239 22.314C91.9719 22.314 94.1495 25.182 94.1288 28.7775C94.7094 28.9854 95.2694 29.1932 95.8501 29.4218L95.062 31.3546C94.6265 31.1884 94.191 31.0221 93.7555 30.8558C92.8844 33.3498 90.458 35.2619 87.7827 35.2619C87.5546 35.2619 87.3057 35.2411 87.0776 35.2203ZM87.3472 33.142C89.2759 33.3914 91.1631 31.9573 91.806 30.17C90.6654 29.8375 89.4833 29.5673 88.2805 29.5673C86.9947 29.5673 85.46 29.879 85.2941 31.2091C85.1282 32.4769 86.2895 33.0173 87.3472 33.142Z" fill="var(--fill-0, #6C4122)"/>
<path d="M96.4631 34.9709C96.3595 31.1676 96.318 27.3435 96.1521 23.5402L98.2259 23.457C98.3918 27.2604 98.4333 31.0637 98.537 34.8878L96.4631 34.9709ZM97.1268 22.8959C96.4217 22.8959 95.8617 22.3555 95.8617 21.6489C95.8617 20.9631 96.4217 20.4019 97.106 20.4019C97.8112 20.4019 98.3711 20.9423 98.3711 21.6489C98.3711 22.3348 97.8112 22.8959 97.1268 22.8959Z" fill="var(--fill-0, #6C4122)"/>
</g>
</g>
</g>
</svg>

<svg xmlns="http://www.w3.org/2000/svg" fill="none" overflow="visible" preserveAspectRatio="none" style="display:block" viewBox="0 0 135 41.672"><g fill="var(--fill-0, #6c4122)"><path d="M28.768 0c4.516 0 6.775 0 8.5.879a8.07 8.07 0 0 1 3.525 3.525c.879 1.726.879 3.984.879 8.501v15.863c0 4.516 0 6.775-.879 8.5a8.07 8.07 0 0 1-3.524 3.525c-1.726.879-3.985.879-8.501.879H12.905c-4.517 0-6.775 0-8.5-.879a8.07 8.07 0 0 1-3.526-3.524C-.001 35.543 0 33.284 0 28.768V12.905c0-4.516 0-6.775.879-8.5A8.07 8.07 0 0 1 4.404.878C6.13 0 8.39 0 12.905 0zM14.333 18.226q-1.057 0-2.072.263-.918.24-1.846.58a.3.3 0 0 0-.198.287v11.383c0 .223.23.373.44.296q.692-.255 1.52-.391 1.098-.181 2.156-.181 1.49 0 2.9.348 1.178.29 2.324.824a.316.316 0 0 0 .45-.282v-7.248a.3.3 0 0 0-.104-.23q-3.238-2.877-4.954-5.394l-.078-.115a.3.3 0 0 0-.242-.136 10 10 0 0 0-.296-.004m12.304.004a.3.3 0 0 0-.243.136l-.078.115q-1.714 2.516-4.954 5.394a.3.3 0 0 0-.103.23v7.249c0 .228.242.377.45.28q1.145-.533 2.323-.823 1.41-.348 2.9-.348 1.058 0 2.156.18a8.3 8.3 0 0 1 1.521.392c.21.076.44-.073.44-.296V19.355a.305.305 0 0 0-.198-.286 20 20 0 0 0-1.846-.58 8.2 8.2 0 0 0-2.368-.26M20.645 7.797q-2.434 0-4.285 1.706t-1.85 4.582q0 1.917 1.524 4.169 1.525 2.253 4.611 4.879 3.087-2.626 4.61-4.88 1.525-2.25 1.524-4.168 0-2.876-1.85-4.582-1.848-1.706-4.283-1.706m-.078 4.032a2.017 2.017 0 1 1 0 4.034 2.017 2.017 0 0 1 0-4.034m30.733 8.573q-1.905 0-3.293-.804-1.377-.812-2.12-2.295-.743-1.49-.743-3.509 0-1.984.742-3.484.752-1.506 2.097-2.344 1.345-.846 3.16-.846 1.173 0 2.212.385a5 5 0 0 1 1.849 1.172q.81.795 1.27 2.027.464 1.223.463 2.914v.93h-10.39v-2.043h7.526q-.008-.871-.371-1.55a2.7 2.7 0 0 0-1.015-1.08q-.645-.394-1.502-.394-.915 0-1.61.453a3.1 3.1 0 0 0-1.08 1.172 3.4 3.4 0 0 0-.389 1.583v1.784q0 1.122.405 1.926.405.795 1.13 1.223.727.418 1.7.418.653 0 1.18-.184.529-.192.917-.561t.586-.913l2.79.318a4.4 4.4 0 0 1-1.008 1.96q-.734.83-1.881 1.29-1.148.452-2.625.452m9.293-7.788v7.537h-2.988V7.287h2.856v2.186h.148a3.67 3.67 0 0 1 1.395-1.717q.966-.636 2.385-.636 1.313 0 2.286.57.982.569 1.519 1.649.545 1.08.536 2.621v8.19h-2.987v-7.72q0-1.29-.66-2.019-.653-.729-1.808-.729-.784 0-1.395.352a2.4 2.4 0 0 0-.949.997q-.338.653-.338 1.582m14.845 7.789q-1.9 0-3.26-.846-1.355-.846-2.088-2.336-.727-1.5-.727-3.45 0-1.96.743-3.46.743-1.506 2.096-2.344 1.362-.846 3.219-.846 1.544 0 2.732.578 1.196.57 1.906 1.616.71 1.038.809 2.429h-2.856a2.8 2.8 0 0 0-.825-1.55q-.644-.627-1.725-.628-.915 0-1.61.503-.692.494-1.08 1.423-.38.93-.38 2.228 0 1.315.38 2.261.38.938 1.064 1.449.694.502 1.626.502.66 0 1.18-.25.53-.26.883-.746.356-.486.487-1.181h2.856q-.108 1.365-.792 2.42a4.7 4.7 0 0 1-1.865 1.642q-1.181.585-2.773.586m11.553 0q-1.856 0-3.218-.83-1.362-.828-2.113-2.319-.743-1.49-.743-3.484t.743-3.492q.75-1.5 2.113-2.328 1.36-.83 3.218-.83t3.219.83q1.362.83 2.104 2.328.751 1.5.751 3.492 0 1.993-.75 3.484-.743 1.49-2.105 2.32-1.361.828-3.219.829m.017-2.429q1.007 0 1.683-.56.677-.57 1.007-1.525.339-.954.339-2.127 0-1.181-.339-2.136-.33-.963-1.007-1.532t-1.683-.57q-1.032 0-1.717.57-.677.57-1.015 1.532-.33.956-.33 2.136 0 1.172.33 2.127.339.954 1.015 1.524.685.561 1.717.561m9.721-5.359v7.537h-2.987V7.287h2.855v2.186h.149a3.67 3.67 0 0 1 1.395-1.717q.965-.636 2.385-.636 1.313 0 2.286.57.983.569 1.518 1.649.544 1.08.537 2.621v8.19h-2.988v-7.72q0-1.29-.66-2.019-.652-.729-1.807-.729-.784 0-1.395.352a2.4 2.4 0 0 0-.95.997q-.338.653-.338 1.582m15.646-5.326v2.345h-7.288V7.287zm-5.489-3.082h2.988v12.077q0 .61.181.938a1 1 0 0 0 .496.435q.305.117.676.117.28 0 .512-.042.24-.041.363-.075l.504 2.37a7 7 0 0 1-.685.184q-.438.1-1.073.117-1.123.034-2.022-.343a3.15 3.15 0 0 1-1.428-1.189q-.52-.804-.512-2.01zm6.128 15.945V7.288h2.897v2.144h.132q.347-1.113 1.188-1.717a3.24 3.24 0 0 1 1.94-.611q.248 0 .552.025.315.016.52.059v2.789a3 3 0 0 0-.602-.118 5.5 5.5 0 0 0-.784-.058q-.817 0-1.469.36a2.6 2.6 0 0 0-1.015.98q-.372.627-.372 1.448v7.563z"/><path d="M125.46 20.402q-1.907 0-3.293-.804-1.379-.812-2.121-2.295-.743-1.49-.743-3.509 0-1.984.743-3.484.752-1.506 2.096-2.344 1.346-.846 3.161-.846 1.172 0 2.212.385a5 5 0 0 1 1.849 1.172q.808.795 1.271 2.027.462 1.223.462 2.914v.93h-10.391v-2.043h7.527q-.008-.871-.371-1.55a2.73 2.73 0 0 0-1.016-1.08q-.643-.394-1.502-.394-.916 0-1.609.453a3.1 3.1 0 0 0-1.081 1.172 3.4 3.4 0 0 0-.388 1.583v1.784q0 1.122.405 1.926.404.795 1.13 1.223.726.418 1.7.418.652 0 1.18-.184.53-.192.916-.561.388-.369.586-.913l2.79.318a4.44 4.44 0 0 1-1.007 1.96q-.735.83-1.882 1.29-1.146.452-2.624.452m6.305-.252V7.288h2.987v12.864zm1.502-14.688q-.71 0-1.221-.478a1.55 1.55 0 0 1-.512-1.164q0-.687.512-1.164a1.7 1.7 0 0 1 1.221-.486q.719 0 1.221.486.512.477.512 1.164 0 .678-.512 1.164a1.7 1.7 0 0 1-1.221.478m-84.68 34.04c-.146-2.1-.332-4.199-.477-6.318-2.26-.936-3.111-3.243-2.945-5.861l2.074.083c-.083 1.205.062 2.348.684 3.138-.083-1.434-.124-2.889.062-4.323.29-2.39 2.053-4.094 4.438-4.094.228 0 .457.02.685.042 3.214.415 4.915 3.075 4.52 6.193-.393 2.91-2.26 4.427-4.935 5.009-.809.187-1.638.29-2.468.249.124 1.891.29 3.783.415 5.695zm1.493-7.981c.726.062 1.452-.02 2.177-.166 1.825-.416 3.049-1.268 3.298-3.263.27-1.975-.643-3.596-2.717-3.866-1.638-.208-2.613.769-2.8 2.265-.228 1.684-.082 3.346.042 5.03m13.103 3.72c-3.215 0-5.558-2.037-5.558-5.32 0-2.89 1.804-4.78 4.708-4.78.539 0 1.078.062 1.617.166l-.373 2.037a6.3 6.3 0 0 0-1.244-.125c-1.763 0-2.634.977-2.634 2.702 0 2.14 1.43 3.242 3.484 3.242 2.406 0 3.961-1.933 3.961-4.26 0-2.536-1.472-4.573-4.21-4.573a7.7 7.7 0 0 0-1.825.229l-.456-2.037a10.6 10.6 0 0 1 2.281-.27c3.837 0 6.284 2.91 6.284 6.65 0 3.492-2.468 6.34-6.035 6.34m8.361-.126c-1.534 0-2.094-1.434-2.094-2.764 0-2.099 1.078-4.925 2.322-6.609-.331-.582-.746-1.101-1.327-1.496l1.203-1.704a6.2 6.2 0 0 1 1.597 1.683c1.846-1.496 4.127-2.078 6.47-2.078v2.078c-2.343-.041-4.189.54-5.64 1.85.352 1.08.497 2.244.497 3.367 0 1.912-.456 5.673-3.028 5.673m.021-1.787c.892 0 1.1-2.785 1.1-3.43 0-.602-.042-1.225-.146-1.849-.705 1.206-1.306 2.91-1.306 4.302 0 .229 0 .977.352.977m15.513 1.891c-2.24-.29-4.169-1.808-3.858-4.281.353-2.619 2.82-3.47 5.123-3.47 1.265 0 2.488.27 3.691.602-.249-2.182-1.514-3.679-3.754-3.679-1.493 0-3.048.707-4.272 1.476l-1.12-1.746c1.577-.997 3.464-1.808 5.351-1.808 3.733 0 5.91 2.868 5.89 6.464.58.207 1.14.415 1.721.644l-.788 1.933-1.306-.5c-.872 2.495-3.298 4.407-5.973 4.407-.228 0-.477-.02-.705-.042m.27-2.078c1.928.25 3.815-1.185 4.458-2.972-1.14-.333-2.323-.603-3.525-.603-1.286 0-2.821.312-2.987 1.642-.166 1.268.996 1.808 2.053 1.933m9.116 1.828c-.103-3.802-.145-7.626-.31-11.43l2.073-.083c.166 3.803.207 7.607.311 11.43zm.664-12.074c-.705 0-1.265-.54-1.265-1.247 0-.686.56-1.247 1.244-1.247.705 0 1.265.54 1.265 1.247a1.25 1.25 0 0 1-1.244 1.247"/></g></svg>
